X:209
T: ET QUAM SICK EN HEF[ERK1EN UT DANIA
N: E0109C
O: 0109C 08  F 3/4
R: erzaehlendes Volks - Lied, Sage, Liebe, Leid, Tod
M: 3/4
L: 1/8
K: C
G,2 | C2C2D2 | E2E2G2 | E2D2E2 | C4
EF | G2G2A2 | G2G2B2 | c2A2B2 | c4
G,2 | C2C2D2 | E2E2G2 | E2D2E2 | C4
EF | G2G2A2 | G2G2B2 | c2A2B2 | c4
EF | G2G2F2 | E2D2E2 | C2B,2C2 | D4
EF | G2G2F2 | E2D2E2 | G,2A,2B,2 | C4

